X: 67
M:C
L:1/8
K:G
d2de d2de | dgfe d2 cB | c2ce B2Bd |
"Variation by Peacock"(3GBd (3GBd (3Gce (3Gce | (3GBd (3GBd (3Gce (3Gce |
(3GBd (3Gce d2 cB | ABcd B2G2 ::
d/c/B/c/ d/c/B/c/ d/c/B/c/ d/c/B/c/ | e/d/c/B/ ge d2 cB |
d/c/B/A/ G/A/B/c/ d/c/B/A/ G/A/B/c/ | e/d/c/B/ ge d2 cB |
c/e/g/e/ c/e/g/e/ B/d/g/d/ B/d/g/B/ | A/G/A/B/ c/B/c/d/ ecBA |


